X:772
T:An Cluinn Thu Mi Mo Nighean Donn
C:Joe Buchanan's Scottish Tome - Page 531.1
I:531 1
Z:Carl Allison
C:Iain McCall
R:Slow Air
L:1/8
M:3/4
K:D
A,D E | "D"{D}F2>E2 FA  | "G"{A}B2>c2 dB | "D"{B}B2>F2 AF | "A7"{F}E2>A,2 DE |
"D"{D}F2>A2 Bc | "G"d2 B2 | "D"{B}A2>B2 AG | "A7"{F}E>D "D"D4- |
D3 d2 dc | "G"B2>d2 cB | "D"A2>A2 BA | "Bm"d2>F2 "Em"FE |
B,>A, DE | "D"{D}F2>A2 Bc | "G"d4 B2 | "D"A2>B2 AF |
"A7"{F}E>D "D"D4- | D2 |]
